X: 2111
Q: "Reel."
M: C
L: 1/8
K: G
ud |\
vgfgd BGGB | cAag fdef |\
gfgd BGGB | cAdF G3 ::\
uc |\
cAeA cAAc |\
[1 BGdG BGGB | cAdF G3 :|\
[2 BGdB ecdB | cAdF G3 |]


